X:1
T:Title
%%score { ( 1 4 ) | ( 2 3 ) }
L:1/8
M:3/4
K:Db
V:1 treble nm="Grand Piano"
V:4 treble 
V:2 bass 
V:3 bass 
V:1
 z2 z2[Q:1/4=112] [FA]2 | [Fd]2 [Fc]2 [GB]2 | [FA]4 FE | D2 F2 [EG]2 | [FA]4 [FA]2 | %5
 [GB]2 [GB]2 [Ac]2 | [Ad]2 [Gc]2 [Fd]2 | e6- | e4 z2 | [Fd]2 [Fc]2 [GB]2 | [FA]4 FE | D2 F2 [EG]2 | %12
 [FA]4 [FA]2 | =G2 A2 B2 | d2 c2 B2 | [CA]6- |[M:2/4] [CA]4 |[M:1/4][K:treble] A2 | %18
[M:3/4] [Fd]2 [Fd]2 [Ge]2 | [Af]4 [Fd]-[FAd] | [Bd]2[K:bass][K:treble] z2 z2 | [FA]4 [FA]2 | %22
 B2 d2 B2 | [Ad]2 [Gc]2 [Fd]2 | e6- | e4 z2 | [Fd]2 [Fd]2 [Ge]2 | [Af]4 GA | %28
 [Bd]2[K:bass][K:treble] z2 z2 | [DFA]4 [DFA]2 | [DGB]2 [DGB]2 [DAd]2 | %31
[M:7/8] [E=Gd]2 [DGB]2 [C_Ge]3 |[M:3/4] [Fd]6- |[M:2/4] [Fd]4 |] %34
V:2
 z2 z2 [D,D]2 | [D,A,]2 [D,A,]2 [D,B,]2 | z2 z2 .A,2 | [D,F,]2 [D,A,D]2 [D,A,]2 | [D,D]4 [D,D]2 | %5
 [G,D]2 [G,D]2 [G,E]2 | [F,D]2 [E,A,]2 [D,D]2 | [A,,CA]6- | [A,,CA]4 [E,A,]2 | %9
 [D,A,]2 [D,A,]2 [D,B,]2 | z2 z2 .A,2 | [D,F,]2 [D,A,D]2 [D,A,]2 | [D,D]4 [D,D]2 | %13
 [E,DE]2 [E,CE]2 [E,=G,E]2 | [E,B,E]2 [E,A,E]2 [E,=G,D]2 | [A,,A,]6- |[M:2/4] [A,,A,]4 | %17
[M:1/4] [A,G]2 |[M:3/4] [D,A,]2 [D,A,]2 [D,A,]2 | [D,D]4 [D,A,]-[D,F,A,] | [G,B,G]2 G,,A,, z C, | %21
 [D,D]4 [D,D]2 | [G,DG]2 [G,B,G]2 [G,DG]2 | [F,D]2 [E,A,]2 [D,D]2 | [A,,CA]2 [C,C]2 [E,C]2 | %25
 A,2 G,2 E,2 | [D,A,]2 [D,A,]2 [D,A,]2 | [D,D]4 [D,A,]-[D,F,A,] | [G,B,G]2 G,,A,, z C, | D,4 D,2 | %30
 G,2 G,2 F,2 |[M:7/8] E,2 E,2 A,,3 |[M:3/4] [D,A,]6- |[M:2/4] [D,A,]4 |] %34
V:3
 x6 | x6 | [D,D]4 [D,D]-[D,G,D] | x6 | x6 | x6 | x6 | x6 | x6 | x6 | [D,D]4 [D,D]-[D,G,D] | x6 | %12
 x6 | x6 | x6 | x6 |[M:2/4] x4 |[M:1/4] x2 |[M:3/4] x6 | z2 z2 .E,2 | z2 G,2 B,,2 | x6 | x6 | x6 | %24
 x6 | x6 | x6 | z2 z2 .E,2 | z2 G,2 B,,2 | x6 | x6 |[M:7/8] x7 |[M:3/4] x6 |[M:2/4] x4 |] %34
V:4
 x6 | x6 | x6 | x6 | x6 | x6 | x6 | z2 C,2 E,2 | A,2 G,2 [GA]2 | x6 | x6 | x6 | x6 | x6 | x6 | %15
 z2 C,2 E,2 |[M:2/4] x4 |[M:1/4][K:treble] x2 |[M:3/4] x6 | z2 z2 .G2 | %20
 z[K:bass] D,[K:treble] [DGB]2 [DGd]2 | x6 | x6 | x6 | z2 A2 A2 | [CA]4 [A,GA]2 | x6 | %27
 z2 z2 [Fd]2 | z[K:bass] D,[K:treble] [DGB]2 [DGd]2 | x6 | x6 |[M:7/8] x7 |[M:3/4] x6 | %33
[M:2/4] x4 |] %34

